X:12
M:6/8
L:1/8
K:D
(F>EF) d2f|edc d2B|AFF F2:|
a|b2f afd|b2f afd|c[Ae][Ae] [A2e2]f|c[Ae][Ae] [A2e2]a|b2f afd|
b2f afd|edc d2B|AFF F2a|b2f afd|dfb afd|fdB AGF|ABc dfg|
a>gf edc|dcB AGF|ABc def|AFF [DF]||

